X:1
T:Wir haben gar ein feste Stat
T:Conrad Hagius
T:Source : Lobgesänge---Ursell---C.Sutorius---1606. Editor : André Vierendeels ( 23/05/17).
T:Notes : Original clefs: C1, C3, C4, F4 Editorial accidentals above the staff Text middle German (Urbs fortitudinis nostrae Sion) (Isaie 26)
T:Wir haben gar ein feste Stat
T:©
T:©
T:©
C:Conrad Hagius
Z:©
%%score [ 1 2 3 4 ]
L:1/8
Q:1/4=120
M:2/2
K:C
V:1 treble nm="Soprano" snm="S"
V:2 treble-8 nm="Tenor 1" snm="T 1"
V:3 treble-8 nm="Tenor 2" snm="T 2"
V:4 bass nm="Bass" snm="B"
V:1
"^1)" F8 | F4 E4 | F2 D2 D4- | D4 ^C4 | D8 | z8 | ^F8 | ^F4 G4 | ^F4 G4 | F4 E4 | E8 | z8 | F8 | %13
w: Wir|ha- ben|gar ein fe-|* ste|Stat,||die|mau- ren,|vor- wehr|umb- sich|hat,||Der|
w: Thut|auff die|tho- ren dis-|* ser|zeit,||dasz|her- ein|ge- hen|fro- me|leut,||ein|
 F4 A4 | A2 G2 F4- | F4 E4 | F8 | z8 | E8 | E2 C2 E4- | E2 D2 D4- |"^#" D4 C4 | D8 |] %23
w: hei- land|wirt uns ohn|_ ge-|fahr,||in|ihr be- hal-|* ten im-|* mer-|dar.|
w: hei- lig|Volck vor- aus|_ er-|welt,||dasz|trew und glau-|* ben im-|* mer|helt.|
V:2
"^2)""^1)" d8 | c4 c4 | A4 G4 | A4 A4 | A8 | z8 | d8 | d4 d4 |"^#" f4 e4 | A3 B c2 B2 | ^c8 | z8 | %12
w: Wir|ha- ben|gar ein|fe- ste|Stat,||die|mau- ren,|vor- wehr|umb- * * sich|hat,||
w: Der|alt irr-|thumb ist|hin für-|war,||du|wirst nu|frie- den|hal- * * ten|gar,||
 d8 | d4 c4 | c6 c2 | c4 c4 | A8 | z8 | c8 | c4 c4 | A4 _B4 | A4 A4 | A8 |] %23
w: der|hei- land|wirt uns|ohn ge-|fahr,||in|ihr be-|hal- ten|im- mer-|dar.|
w: in|fried wirt|im- mer|seyn bei|dir,||den|auff dich,|Herr, ver-|trau- wen|wir.|
V:3
"^3)""^1)" A8 | A4 G4 | F4 D4 | F4 E4 | D8 | z8 | D8 | A4 B4 | c4 c4 | F4 G4 | A8 | z8 | A8 | %13
w: Wir|ha- ben|gar ein|fe- ste|Stat,||die|mau- ren,|vor- wehr|umb sich|hat,||der|
w: Auff|Gott habt|ihr nach|der ge-|bür||euch|gar ver-|las- sen|für und|für,||auff|
 _B4 A4 | F4 A4 | G4 G4 | F8 | z8 | G8 | A4 G4 | ^F4 G4 | E4 E4 | D8 |] %23
w: hei- land|wirt uns|ohn ge-|fahr,||in|ihr be-|hal- ten|im- mer-|dar|
w: Gott den|star- cken|Her- ren|zwar,||war|e- wer|hoff- nung|im- mer-|dar.|
V:4
"^4)""^1)""^5)" D,8 | F,4 C,4 | D,4 _B,,4 | A,,4 A,,4 | D,8 | z8 | D,8 | D,4 G,4 | F,4 C,4 | %9
w: Wir|ha- ben|gar ein|fe- ste|Stat,||die|mau- ren,|vor- wehr|
w: Dem|er die|Stol- tzen|in dem|land,||an-|grei- ffen|wird mit|
 D,4 E,4 | A,,8 | z8 | D,8 | _B,,4 F,,4 | F,4 F,4 | C,4 C,4 | F,,8 | z8 | C,8 | A,,4 C,4 | %20
w: umb sich|hat,||der|hei- land|wirt uns|ohn ge-|fahr,||in|ihr be-|
w: sei- ner|hand,||wirt|sie her-|ni- der|le- gen|gar,||die|auff den|
 D,4 G,,4 | A,,4 A,,4 | D,8 |] %23
w: hal- ten|im- mer-|dar.|
w: höh- en|wo- nen|dar.|

